icons/plexis/48/pgadmin.svg

<svg viewBox="0 0 48 48" xmlns="http://www.w3.org/2000/svg" xmlns:xlink="http://www.w3.org/1999/xlink">
  <linearGradient id="a" gradientTransform="matrix(0 -1 1 0 -.0000015 47.999998)" gradientUnits="userSpaceOnUse" x1="1" x2="47">
    <stop offset="0" stop-color="#e4e4e4"/>
    <stop offset="1" stop-color="#eee"/>
  </linearGradient>
  <path d="m47 24c0 22.703-.297 23-23 23-22.703 0-23-.297-23-23 0-22.703.297-23 23-23 22.703 0 23 .297 23 23z" fill="url(#a)"/>
  <path d="m31.06 12c-.99.009-1.849.149-2.443.283-.282.051-.555.152-.824.229.007.084-.065.036-.106.059-.709-.18-1.433-.213-2.033-.266-1.431-.023-2.545.353-3.416.939-.219-.085-2.676-1.016-5.186-.877-1.313.073-2.637.451-3.605 1.439-.968.988-1.545 2.565-1.42 4.947.029.542.231 1.719.568 3.17.338 1.451.808 3.16 1.391 4.686.582 1.526 1.262 2.869 2.07 3.625.404.378.859.616 1.35.596.491-.021.972-.296 1.426-.822 1.225-1.424 2.316-2.538 2.338-2.561.552.295 1.174.468 1.834.441-.002.092-.062.194-.072.289-.345.388-.529.642-.717.785-.213.163-.543.282-1.412.455-.462.091-.754.194-.955.354-.101.08-.184.187-.213.313-.029.126.007.251.061.346.108.19.282.309.471.408.189.099.398.17.59.215.429.103 1.145.234 1.938.104.678-.111 1.407-.446 2.033-1.115-.017 1.168-.014 2.31.029 3.273.028.632.069 1.193.123 1.648.054.455.116.797.215 1.037.238.629.657 1.04.969 1.434.552.446 1.396.712 2.604.469.986-.204 1.697-.513 2.199-1.016.502-.503.772-1.185.928-2.057.203-1.138.533-3.784.65-4.918.061.028.125.054.193.074.315.095.711.128 1.137.125.851-.006 1.822-.166 2.471-.457.755-.338 1.347-.758 1.619-1.156.068-.1.119-.205.131-.332.012-.127-.048-.284-.16-.367-.224-.166-.478-.142-.857-.068h-.006c-1.598.319-2.419.206-2.811.049-.187-.075-.276-.15-.322-.205 1.687-2.453 2.89-5.203 3.52-7.553.32-1.195.492-2.288.506-3.191.014-.904-.12-1.626-.498-2.09-1.812-2.226-4.325-2.758-6.305-2.74z" opacity=".1" transform=""/>
  <g transform="translate(.00003953)">
    <path d="m36.04 27.02c-3.254.645-3.477-.418-3.477-.418 3.434-4.906 4.867-11.137 3.629-12.664-3.379-4.156-9.227-2.191-9.328-2.137l-.031.004c-.641-.125-1.359-.203-2.168-.215-1.469-.023-2.586.371-3.434.992 0 0-10.43-4.141-9.949 5.207.102 1.988 2.957 15.05 6.363 11.11 1.246-1.441 2.449-2.66 2.449-2.66.598.383 1.313.578 2.063.508l.055-.047c-.016.18-.008.355.027.563-.879.945-.621 1.109-2.375 1.461-1.773.352-.734.98-.055 1.145.828.199 2.738.48 4.03-1.258l-.055.199c.344.266.586 1.723.547 3.051-.039 1.324-.066 2.23.203 2.941.27.711.539 2.309 2.844 1.832 1.93-.395 2.926-1.426 3.066-3.148.098-1.223.32-1.043.336-2.137l.176-.516c.207-1.66.031-2.195 1.219-1.941l.289.023c.875.039 2.02-.137 2.688-.438 1.445-.645 2.305-1.723.879-1.441m.012-.012" fill="#33678e"/>
    <path d="m6.769 7.893c-.025.87.007 1.745.095 1.96.088.213.278.624.929.493.542-.112.742-.332.827-.809.063-.353.185-1.333.201-1.535" fill="none" stroke="#f9f9f9" stroke-linecap="round" stroke-linejoin="round" stroke-width=".141" transform="scale(3.543307)"/>
    <path d="m5.99 3.53c0 0-2.947-1.16-2.809 1.478.03.561.836 4.248 1.797 3.133.351-.408.668-.729.668-.729" fill="none" stroke="#f9f9f9" stroke-linecap="round" stroke-linejoin="round" stroke-width=".141" transform="scale(3.543307)"/>
    <path d="m7.581 3.318c-.105.031 1.637-.613 2.627.605.351.43-.055 2.186-1.023 3.573" fill="none" stroke="#f9f9f9" stroke-linecap="round" stroke-linejoin="round" stroke-width=".141" transform="scale(3.543307)"/>
    <path d="m9.185 7.497c0 0 .063.301.98.118.4-.078.161.226-.248.409-.334.15-1.087.185-1.097-.021-.033-.535.396-.372.365-.506-.031-.119-.219-.237-.345-.53-.11-.257-1.51-2.23.388-1.937.067-.014-.495-1.741-2.272-1.768-1.777-.028-1.72 2.106-1.72 2.106" fill="none" stroke="#f9f9f9" stroke-linecap="round" stroke-linejoin="bevel" stroke-width=".141" transform="scale(3.543307)"/>
    <path d="m6.272 7.68c-.248.269-.174.312-.67.411-.501.099-.204.278-.012.323.233.056.772.137 1.136-.356.111-.15-.001-.388-.152-.449-.075-.029-.172-.066-.299.071m0 0" fill="none" stroke="#f9f9f9" stroke-linecap="round" stroke-linejoin="round" stroke-width=".141" transform="scale(3.543307)"/>
    <path d="m6.256 7.675c-.025-.158.053-.343.137-.561.126-.327.418-.655.185-1.693-.174-.774-1.339-.161-1.342-.055 0 .107.053.531-.02 1.031-.094.648.429 1.197 1.031 1.141" fill="none" stroke="#f9f9f9" stroke-linecap="round" stroke-linejoin="round" stroke-width=".141" transform="scale(3.543307)"/>
    <path d="m5.978 5.348c-.008.036.065.131.162.144.096.013.176-.063.183-.098.006-.036-.067-.075-.163-.088-.096-.013-.177.006-.182.042m0 0" fill="#fff" stroke="#f9f9f9" stroke-width=".141" transform="scale(3.543307)"/>
    <path d="m8.887 5.275c.008.036-.066.131-.163.144-.097.01-.175-.065-.183-.098-.006-.036.067-.075.163-.088.096-.013.177.006.182.042m.001 0" fill="#fff" stroke="#f9f9f9" stroke-width=".071" transform="scale(3.543307)"/>
    <path d="m9.228 5.03c.013.281-.064.473-.075.772-.013.434.215.933-.129 1.431" fill="none" stroke="#f9f9f9" stroke-linecap="round" stroke-linejoin="round" stroke-width=".141" transform="scale(3.543307)"/>
  </g>
</svg>

<svg xmlns="http://www.w3.org/2000/svg" viewBox="0 0 48 48">
 <defs>
  <linearGradient id="linearGradient3764" x1="1" x2="47" gradientUnits="userSpaceOnUse" gradientTransform="matrix(0,-1,1,0,-1.5e-6,47.999998)">
   <stop style="stop-color:#e4e4e4;stop-opacity:1"/>
   <stop offset="1" style="stop-color:#eee;stop-opacity:1"/>
  </linearGradient>
 </defs>
 <g>
  
  
  
 </g>
 <g>
  <path d="m 47,24 C 47,46.703 46.703,47 24,47 1.297,47 1,46.703 1,24 1,1.297 1.297,1 24,1 46.703,1 47,1.297 47,24 z" style="fill:url(#linearGradient3764);fill-opacity:1"/>
 </g>
 <g>
  <g>
   <g transform="translate(1,1)">
    <g style="opacity:0.1">
     <!-- color: #eeeeee -->
     <g>
      <path d="m 31.06 12 c -0.99 0.009 -1.849 0.149 -2.443 0.283 -0.282 0.051 -0.555 0.152 -0.824 0.229 0.007 0.084 -0.065 0.036 -0.106 0.059 -0.709 -0.18 -1.433 -0.213 -2.033 -0.266 -1.431 -0.023 -2.545 0.353 -3.416 0.939 -0.219 -0.085 -2.676 -1.016 -5.186 -0.877 -1.313 0.073 -2.637 0.451 -3.605 1.439 -0.968 0.988 -1.545 2.565 -1.42 4.947 0.029 0.542 0.231 1.719 0.568 3.17 0.338 1.451 0.808 3.16 1.391 4.686 0.582 1.526 1.262 2.869 2.07 3.625 0.404 0.378 0.859 0.616 1.35 0.596 0.491 -0.021 0.972 -0.296 1.426 -0.822 1.225 -1.424 2.316 -2.538 2.338 -2.561 0.552 0.295 1.174 0.468 1.834 0.441 -0.002 0.092 -0.062 0.194 -0.072 0.289 -0.345 0.388 -0.529 0.642 -0.717 0.785 -0.213 0.163 -0.543 0.282 -1.412 0.455 -0.462 0.091 -0.754 0.194 -0.955 0.354 -0.101 0.08 -0.184 0.187 -0.213 0.313 -0.029 0.126 0.007 0.251 0.061 0.346 0.108 0.19 0.282 0.309 0.471 0.408 0.189 0.099 0.398 0.17 0.59 0.215 0.429 0.103 1.145 0.234 1.938 0.104 0.678 -0.111 1.407 -0.446 2.033 -1.115 -0.017 1.168 -0.014 2.31 0.029 3.273 0.028 0.632 0.069 1.193 0.123 1.648 0.054 0.455 0.116 0.797 0.215 1.037 0.238 0.629 0.657 1.04 0.969 1.434 0.552 0.446 1.396 0.712 2.604 0.469 0.986 -0.204 1.697 -0.513 2.199 -1.016 0.502 -0.503 0.772 -1.185 0.928 -2.057 0.203 -1.138 0.533 -3.784 0.65 -4.918 0.061 0.028 0.125 0.054 0.193 0.074 0.315 0.095 0.711 0.128 1.137 0.125 0.851 -0.006 1.822 -0.166 2.471 -0.457 0.755 -0.338 1.347 -0.758 1.619 -1.156 0.068 -0.1 0.119 -0.205 0.131 -0.332 0.012 -0.127 -0.048 -0.284 -0.16 -0.367 -0.224 -0.166 -0.478 -0.142 -0.857 -0.068 l -0.006 0 c -1.598 0.319 -2.419 0.206 -2.811 0.049 -0.187 -0.075 -0.276 -0.15 -0.322 -0.205 1.687 -2.453 2.89 -5.203 3.52 -7.553 0.32 -1.195 0.492 -2.288 0.506 -3.191 0.014 -0.904 -0.12 -1.626 -0.498 -2.09 -1.812 -2.226 -4.325 -2.758 -6.305 -2.74 z" transform="translate(-1,-1)" mix-blend-mode="normal" isolation="auto" white-space="normal" solid-opacity="1" solid-color="#000000" style="visibility:visible;shape-rendering:auto;color-interpolation-filters:linearRGB;fill:#000;opacity:1;image-rendering:auto;fill-opacity:1;stroke:none;display:inline;color:#000;fill-rule:nonzero;color-rendering:auto;color-interpolation:sRGB"/>
     </g>
    </g>
   </g>
  </g>
 </g>
 <g transform="translate(3.9525081e-5,0)">
  <g>
   <!-- color: #eeeeee -->
   <g>
    <path d="m 36.04,27.02 c -3.254,0.645 -3.477,-0.418 -3.477,-0.418 3.434,-4.906 4.867,-11.137 3.629,-12.664 -3.379,-4.156 -9.227,-2.191 -9.328,-2.137 l -0.031,0.004 c -0.641,-0.125 -1.359,-0.203 -2.168,-0.215 -1.469,-0.023 -2.586,0.371 -3.434,0.992 0,0 -10.43,-4.141 -9.949,5.207 0.102,1.988 2.957,15.05 6.363,11.11 1.246,-1.441 2.449,-2.66 2.449,-2.66 0.598,0.383 1.313,0.578 2.063,0.508 L 22.212,26.7 c -0.016,0.18 -0.008,0.355 0.027,0.563 -0.879,0.945 -0.621,1.109 -2.375,1.461 -1.773,0.352 -0.734,0.98 -0.055,1.145 0.828,0.199 2.738,0.48 4.03,-1.258 l -0.055,0.199 c 0.344,0.266 0.586,1.723 0.547,3.051 -0.039,1.324 -0.066,2.23 0.203,2.941 0.27,0.711 0.539,2.309 2.844,1.832 1.93,-0.395 2.926,-1.426 3.066,-3.148 0.098,-1.223 0.32,-1.043 0.336,-2.137 l 0.176,-0.516 c 0.207,-1.66 0.031,-2.195 1.219,-1.941 l 0.289,0.023 c 0.875,0.039 2.02,-0.137 2.688,-0.438 1.445,-0.645 2.305,-1.723 0.879,-1.441 m 0.012,-0.012" style="fill:#33678e;fill-opacity:1;stroke:none;fill-rule:nonzero"/>
    <path d="m 6.769,7.893 c -0.025,0.87 0.007,1.745 0.095,1.96 0.088,0.213 0.278,0.624 0.929,0.493 C 8.335,10.234 8.535,10.014 8.62,9.537 8.683,9.184 8.805,8.204 8.821,8.002" transform="scale(3.543307,3.543307)" style="stroke-opacity:1;fill:none;stroke-miterlimit:4;stroke:#f9f9f9;stroke-linecap:round;stroke-linejoin:round;stroke-width:0.141"/>
    <path d="m 5.99,3.53 c 0,0 -2.947,-1.16 -2.809,1.478 0.03,0.561 0.836,4.248 1.797,3.133 C 5.329,7.733 5.646,7.412 5.646,7.412" transform="scale(3.543307,3.543307)" style="stroke-opacity:1;fill:none;stroke-miterlimit:4;stroke:#f9f9f9;stroke-linecap:round;stroke-linejoin:round;stroke-width:0.141"/>
    <path d="m 7.581 3.318 c -0.105 0.031 1.637 -0.613 2.627 0.605 0.351 0.43 -0.055 2.186 -1.023 3.573" transform="scale(3.543307,3.543307)" style="stroke-opacity:1;fill:none;stroke-miterlimit:4;stroke:#f9f9f9;stroke-linecap:round;stroke-linejoin:round;stroke-width:0.141"/>
    <path d="m 9.185,7.497 c 0,0 0.063,0.301 0.98,0.118 0.4,-0.078 0.161,0.226 -0.248,0.409 C 9.583,8.174 8.83,8.209 8.82,8.003 8.787,7.468 9.216,7.631 9.185,7.497 9.154,7.378 8.966,7.26 8.84,6.967 8.73,6.71 7.33,4.737 9.228,5.03 9.295,5.016 8.733,3.289 6.956,3.262 5.179,3.234 5.236,5.368 5.236,5.368" transform="scale(3.543307,3.543307)" style="stroke-opacity:1;fill:none;stroke-miterlimit:4;stroke:#f9f9f9;stroke-linecap:round;stroke-linejoin:bevel;stroke-width:0.141"/>
    <path d="M 6.272,7.68 C 6.024,7.949 6.098,7.992 5.602,8.091 5.101,8.19 5.398,8.369 5.59,8.414 5.823,8.47 6.362,8.551 6.726,8.058 6.837,7.908 6.725,7.67 6.574,7.609 6.499,7.58 6.402,7.543 6.275,7.68 m 0,0" transform="scale(3.543307,3.543307)" style="stroke-opacity:1;fill:none;stroke-miterlimit:4;stroke:#f9f9f9;stroke-linecap:round;stroke-linejoin:round;stroke-width:0.141"/>
    <path d="M 6.256,7.675 C 6.231,7.517 6.309,7.332 6.393,7.114 6.519,6.787 6.811,6.459 6.578,5.421 6.404,4.647 5.239,5.26 5.236,5.366 c 0,0.107 0.053,0.531 -0.02,1.031 -0.094,0.648 0.429,1.197 1.031,1.141" transform="scale(3.543307,3.543307)" style="stroke-opacity:1;fill:none;stroke-miterlimit:4;stroke:#f9f9f9;stroke-linecap:round;stroke-linejoin:round;stroke-width:0.141"/>
    <path d="M 5.978,5.348 C 5.97,5.384 6.043,5.479 6.14,5.492 6.236,5.505 6.316,5.429 6.323,5.394 6.329,5.358 6.256,5.319 6.16,5.306 6.064,5.293 5.983,5.312 5.978,5.348 m 0,0" transform="scale(3.543307,3.543307)" style="stroke-opacity:1;fill:#fff;stroke-miterlimit:4;fill-opacity:1;stroke:#f9f9f9;fill-rule:nonzero;stroke-linecap:butt;stroke-linejoin:miter;stroke-width:0.141"/>
    <path d="M 8.887,5.275 C 8.895,5.311 8.821,5.406 8.724,5.419 8.627,5.429 8.549,5.354 8.541,5.321 8.535,5.285 8.608,5.246 8.704,5.233 8.8,5.22 8.881,5.239 8.886,5.275 m 0.001,0" transform="scale(3.543307,3.543307)" style="stroke-opacity:1;fill:#fff;stroke-miterlimit:4;fill-opacity:1;stroke:#f9f9f9;fill-rule:nonzero;stroke-linecap:butt;stroke-linejoin:miter;stroke-width:0.071"/>
    <path d="M 9.228,5.03 C 9.241,5.311 9.164,5.503 9.153,5.802 9.14,6.236 9.368,6.735 9.024,7.233" transform="scale(3.543307,3.543307)" style="stroke-opacity:1;fill:none;stroke-miterlimit:4;stroke:#f9f9f9;stroke-linecap:round;stroke-linejoin:round;stroke-width:0.141"/>
   </g>
  </g>
 </g>
 <g>
  
 </g>
</svg>
